svg/file/to_do_fill.svg

<?xml version="1.0" encoding="UTF-8"?>
<svg width="24px" height="24px" viewBox="0 0 24 24" version="1.1" xmlns="http://www.w3.org/2000/svg" xmlns:xlink="http://www.w3.org/1999/xlink">
    <title>to_do_fill</title>
    <g id="Icon" stroke="none" stroke-width="1" fill="none" fill-rule="evenodd">
        <g id="File" transform="translate(-816.000000, -432.000000)">
            <g id="to_do_fill" transform="translate(816.000000, 432.000000)">
                <path d="M24,0 L24,24 L0,24 L0,0 L24,0 Z M12.5935,23.2578 L12.5819,23.2595 L12.5109,23.295 L12.4919,23.2987 L12.4767,23.295 L12.4057,23.2595 C12.3958,23.2564 12.387,23.259 12.3821,23.2649 L12.378,23.2758 L12.3609,23.7031 L12.3659,23.7235 L12.3769,23.7357 L12.4805,23.8097 L12.4953,23.8136 L12.5071,23.8097 L12.6107,23.7357 L12.6233,23.7197 L12.6267,23.7031 L12.6096,23.2758 C12.6076,23.2657 12.601,23.2593 12.5935,23.2578 Z M12.8584,23.1453 L12.8445,23.1473 L12.6598,23.2397 L12.6499,23.2499 L12.6472,23.2611 L12.6651,23.6906 L12.6699,23.7034 L12.6784,23.7105 L12.8793,23.8032 C12.8914,23.8069 12.9022,23.803 12.9078,23.7952 L12.9118,23.7812 L12.8777,23.1665 C12.8753,23.1546 12.8674,23.147 12.8584,23.1453 Z M12.143,23.1473 C12.1332,23.1424 12.1222,23.1453 12.1156,23.1526 L12.1099,23.1665 L12.0758,23.7812 C12.0751,23.7927 12.0828,23.8019 12.0926,23.8046 L12.1083,23.8032 L12.3092,23.7105 L12.3186,23.7024 L12.3225,23.6906 L12.3404,23.2611 L12.3372,23.2485 L12.3278,23.2397 L12.143,23.1473 Z" id="MingCute" fill-rule="nonzero"></path>
                <path d="M18,2 C19.1046,2 20,2.89543 20,4 L20,12.8027 C19.1175,12.2922 18.0929,12 17,12 C13.6863,12 11,14.6863 11,18 C11,19.5367 11.5777,20.9385 12.5278,22 L6,22 C4.89543,22 4,21.1046 4,20 L4,4 C4,2.89543 4.89543,2 6,2 L18,2 Z M17,14 C19.2091,14 21,15.7909 21,18 C21,20.2091 19.2091,22 17,22 C14.7909,22 13,20.2091 13,18 C13,15.7909 14.7909,14 17,14 Z M17,15.5 C16.48715,15.5 16.0644908,15.886027 16.0067275,16.3833761 L16,16.5 L16,18 C16,18.51285 16.386027,18.9355092 16.8833761,18.9932725 L17,19 L18,19 C18.5523,19 19,18.5523 19,18 C19,17.48715 18.613973,17.0644908 18.1166239,17.0067275 L18,17 L18,16.5 C18,15.9477 17.5523,15.5 17,15.5 Z M9,11 L8,11 C7.44772,11 7,11.4477 7,12 C7,12.5523 7.44772,13 8,13 L9,13 C9.55228,13 10,12.5523 10,12 C10,11.4477 9.55228,11 9,11 Z M14,7 L8,7 C7.44772,7 7,7.44772 7,8 C7,8.51283143 7.38604429,8.93550653 7.88337975,8.9932722 L8,9 L14,9 C14.5523,9 15,8.55228 15,8 C15,7.48716857 14.613973,7.06449347 14.1166239,7.0067278 L14,7 Z" id="形状" fill="#09244B"></path>
            </g>
        </g>
    </g>
</svg>

<svg xmlns="http://www.w3.org/2000/svg" width="24" height="24"><g fill="none" fill-rule="evenodd"><path d="M24 0v24H0V0h24ZM12.594 23.258l-.012.002-.071.035-.02.004-.014-.004-.071-.036c-.01-.003-.019 0-.024.006l-.004.01-.017.428.005.02.01.013.104.074.015.004.012-.004.104-.074.012-.016.004-.017-.017-.427c-.002-.01-.009-.017-.016-.018Zm.264-.113-.014.002-.184.093-.01.01-.003.011.018.43.005.012.008.008.201.092c.012.004.023 0 .029-.008l.004-.014-.034-.614c-.003-.012-.01-.02-.02-.022Zm-.715.002a.023.023 0 0 0-.027.006l-.006.014-.034.614c0 .012.007.02.017.024l.015-.002.201-.093.01-.008.003-.011.018-.43-.003-.012-.01-.01-.184-.092Z"/><path fill="#09244B" d="M18 2a2 2 0 0 1 2 2v8.803A6 6 0 0 0 12.528 22H6a2 2 0 0 1-2-2V4a2 2 0 0 1 2-2h12Zm-1 12a4 4 0 1 1 0 8 4 4 0 0 1 0-8Zm0 1.5a1 1 0 0 0-.993.883L16 16.5V18a1 1 0 0 0 .883.993L17 19h1a1 1 0 0 0 .117-1.993L18 17v-.5a1 1 0 0 0-1-1ZM9 11H8a1 1 0 1 0 0 2h1a1 1 0 1 0 0-2Zm5-4H8a1 1 0 0 0-.117 1.993L8 9h6a1 1 0 0 0 .117-1.993L14 7Z"/></g></svg>
